assets/p/b/cc-by-sa.svg

<svg width="120" height="42" viewBox="0 0 120 42" xmlns="http://www.w3.org/2000/svg"><defs/><path fill="#aab2ab" stroke="none" d="M 3.408 0.476 L 116.762 0.678 C 118.346 0.678 119.762 0.443 119.762 3.838 L 119.622 41.168 L 0.547 41.168 L 0.547 3.7 C 0.547 2.026 0.71 0.476 3.407 0.476"/><path fill="#ffffff" stroke="none" d="M 34.522 19.575 C 34.527 27.104998 28.425999 33.212 20.896 33.217 C 13.366 33.222 7.256 27.121 7.252 19.592 L 7.252 19.575 C 7.248 12.045 13.35 5.938 20.88 5.934 C 28.411001 5.929 34.519 12.03 34.523 19.559 Z"/><path fill="#000000" stroke="none" d="M 31.971 8.47 Q 36.507 13.006 36.507 19.576 Q 36.507 26.146 32.049 30.563 Q 27.318998 35.216 20.868 35.216 Q 14.494 35.216 9.881 30.602 Q 5.268 25.988 5.267 19.576 Q 5.266 13.164 9.881 8.47 Q 14.377 3.935 20.868 3.935 Q 27.438 3.935 31.971 8.47 M 11.917 10.504 Q 8.082 14.376 8.083 19.579 Q 8.084 24.782001 11.877 28.575 Q 15.672 32.369 20.914 32.369 Q 26.156002 32.369 30.027998 28.536 Q 33.706 24.978003 33.706 19.579 Q 33.706 14.221 29.969002 10.485 Q 26.234 6.75 20.914 6.7490005 Q 15.593999 6.7490005 11.917 10.504 M 18.644 18.054 Q 18.058 16.776 16.888 16.776 Q 14.821 16.776 14.821 19.559 Q 14.821 22.341997 16.888 22.343002 Q 18.254 22.343002 18.839 20.985 L 20.75 22.003 Q 19.385 24.431 16.65 24.431 Q 14.543 24.431 13.274 23.139 Q 12.005 21.846998 12.005 19.576 Q 12.005 17.343 13.313 16.032 Q 14.620999 14.72 16.573 14.72 Q 19.461 14.72 20.712 16.995 Z M 27.634003 18.054 Q 27.047 16.776 25.914 16.776 Q 23.804 16.776 23.804 19.559 Q 23.804 22.341997 25.914 22.343002 Q 27.282 22.343002 27.829 20.985 L 29.782001 22.003 Q 28.418 24.431 25.689999 24.431 Q 23.585 24.431 22.318 23.139 Q 21.053 21.846 21.052 19.576 Q 21.052 17.343 22.339 16.032 Q 23.624 14.72 25.612 14.72 Q 28.497002 14.72 29.742 16.995 Z"/><path fill="#000000" stroke="none" d="M 117.753 0 L 2.247 0 C 1.0067014 0.00165263 0.00165263 1.0067014 0 2.247 L 0 41.492 C 0 41.772 0.227 42 0.507 42 L 119.492 42 C 119.772 42 120 41.772 120 41.492 L 120 2.247 C 119.998344 1.0067014 118.99331 0.00165263 117.753 0 M 2.247 1.015 L 117.753 1.015 C 118.43301 1.015 118.985 1.568 118.985 2.247 L 118.985 29.492 L 36.428 29.492 C 33.402 34.962 27.572 38.677 20.881 38.677 C 14.188 38.677 8.36 34.966 5.335 29.492 L 1.015 29.492 L 1.015 2.247 C 1.015 1.567 1.567 1.015 2.247 1.015"/><g><path fill="#ffffff" stroke="none" d="M 86.264 37.732 Q 86.384 37.964 86.584 38.108 Q 86.78199 38.252 87.05 38.321 Q 87.32 38.391 87.606 38.391 Q 87.8 38.391 88.022 38.359 Q 88.243996 38.326 88.438995 38.233 C 88.56492 38.174088 88.67547 38.086803 88.762 37.978 C 88.852 37.85962 88.897964 37.71359 88.892 37.565 C 88.89827 37.402283 88.83585 37.244427 88.72001 37.13 C 88.5891 37.009224 88.43638 36.91453 88.27 36.851 C 88.06556 36.771442 87.85569 36.706608 87.642 36.657 C 87.403015 36.60016 87.1653 36.538143 86.929 36.471 C 86.68346 36.410645 86.44197 36.334824 86.206 36.244 C 85.980316 36.158993 85.76811 36.04178 85.576 35.896 C 85.388626 35.753593 85.23498 35.5716 85.126 35.363 C 85.005165 35.123035 84.9467 34.85651 84.956 34.588 Q 84.956 34.078 85.173 33.702 Q 85.392 33.327 85.743 33.076 Q 86.095 32.826 86.54 32.705 Q 86.984 32.585 87.43 32.585 Q 87.949 32.585 88.426 32.701 Q 88.902 32.817 89.273 33.077 Q 89.644005 33.337 89.86299 33.741 Q 90.07901 34.144 90.08 34.72 L 88.667 34.72 C 88.66121 34.549038 88.61893 34.381287 88.543 34.228 C 88.47764 34.10291 88.38034 33.997337 88.260994 33.922 C 88.13766 33.84545 88.00146 33.79192 87.85901 33.764 C 87.69626 33.732327 87.530785 33.716915 87.365 33.718 C 87.24737 33.71819 87.13007 33.73059 87.01501 33.755 C 86.902306 33.779663 86.79471 33.823647 86.697 33.885 C 86.60302 33.945038 86.52264 34.024063 86.461 34.117 C 86.396385 34.222733 86.36437 34.345173 86.369 34.469 Q 86.369 34.664 86.442 34.785 Q 86.517006 34.905 86.735 35.007 Q 86.951 35.109 87.336 35.212 Q 87.72 35.314 88.342 35.472 Q 88.526 35.509 88.854996 35.606 Q 89.18499 35.703 89.508 35.916 Q 89.833 36.13 90.069 36.487 Q 90.305 36.844 90.305 37.401 Q 90.305 37.857 90.128 38.246 Q 89.952 38.636 89.604 38.918 Q 89.256 39.202 88.742004 39.359 C 88.35522 39.47133 87.95368 39.524593 87.55101 39.517 Q 87.003006 39.517 86.488 39.382 C 86.1609 39.299103 85.852234 39.15563 85.578 38.959 C 85.31557 38.76611 85.10159 38.514824 84.953 38.225 Q 84.721 37.778 84.73 37.167 L 86.143 37.167 Q 86.143 37.5 86.263 37.732 M 94.47 32.747 L 96.947 39.369 L 95.43399 39.369 L 94.934 37.894 L 92.45599 37.894 L 91.936 39.369 L 90.471 39.369 L 92.976 32.747 Z M 94.55301 36.807 L 93.718 34.38 L 93.7 34.38 L 92.83599 36.807 Z"/></g><g><path fill="#ffffff" stroke="none" d="M 59.996998 32.747 Q 60.47 32.747 60.86 32.831 Q 61.250004 32.915 61.53 33.105 Q 61.81 33.295 61.961998 33.61 Q 62.115 33.926 62.115 34.388 Q 62.115 34.889 61.887 35.222 Q 61.66 35.556 61.214005 35.769 Q 61.828 35.946 62.131 36.386 Q 62.434 36.827 62.433 37.449 Q 62.433 37.95 62.238 38.316 C 62.1129 38.554424 61.932964 38.759727 61.713005 38.915 Q 61.383 39.146 60.96 39.258 C 60.67601 39.332405 60.383575 39.369717 60.09 39.369 L 56.874996 39.369 L 56.874996 32.747 Z M 59.81 35.426 Q 60.2 35.426 60.452 35.241 Q 60.702 35.055 60.702 34.64 C 60.706017 34.508434 60.677505 34.37791 60.619 34.26 C 60.566757 34.16404 60.489307 34.084167 60.395004 34.029 C 60.295746 33.972332 60.18751 33.933094 60.075005 33.913 C 59.950954 33.890507 59.825058 33.87979 59.699 33.881 L 58.334 33.881 L 58.334 35.426 Z M 59.895996 38.236 Q 60.109 38.236 60.304 38.194 C 60.42668 38.16965 60.5437 38.1225 60.648994 38.055 C 60.748993 37.98868 60.830257 37.897774 60.885 37.791 C 60.949234 37.65812 60.979794 37.51148 60.974 37.364 Q 60.974 36.854 60.686005 36.637 Q 60.396 36.419 59.924 36.419 L 58.334 36.419 L 58.334 38.236 Z M 62.69 32.747 L 64.324 32.747 L 65.874 35.363 L 67.416 32.747 L 69.04 32.747 L 66.581 36.827 L 66.581 39.369 L 65.121 39.369 L 65.121 36.791 Z"/></g><path fill="#ffffff" stroke="none" d="M 102.403 14.98 C 102.407 20.826 97.672 25.568 91.82599 25.572 C 85.98 25.576 81.238 20.842 81.233 14.996 L 81.233 14.981 C 81.229 9.135 85.965 4.394 91.81 4.389 C 97.656006 4.385 102.4 9.12 102.403 14.965 Z"/><path fill="#000000" stroke="none" d="M 91.742 3.386 Q 86.925 3.386 83.586 6.748 Q 80.161 10.227 80.161 14.981 Q 80.161 19.735 83.586 23.155 Q 87.011 26.575 91.742 26.575 Q 96.531 26.575 100.045 23.126001 Q 103.353 19.851 103.353 14.981 Q 103.353 10.111 99.986 6.748 Q 96.61901 3.385 91.742 3.386 M 91.772 5.4730005 Q 95.719 5.4730005 98.477 8.256 Q 101.263 11.01 101.263 14.981 Q 101.263 18.981 98.535 21.619 Q 95.661 24.459 91.771 24.459 Q 87.881004 24.459 85.066 21.649 Q 82.251 18.836 82.251 14.981 Q 82.251 11.126 85.095 8.256 Q 87.824 5.4730005 91.771 5.4730005"/><path fill="#000000" stroke="none" d="M 86.603 13.344 C 87.064 10.427 89.119 8.867 91.69301 8.867 C 95.395 8.867 97.65101 11.553001 97.65101 15.135 C 97.65101 18.63 95.25099 21.345 91.635 21.345 C 89.147 21.345 86.921 19.815 86.51499 16.811 L 89.436 16.811 C 89.524 18.371 90.53601 18.919 91.981995 18.919 C 93.62999 18.919 94.70201 17.389 94.70201 15.049 C 94.70201 12.593999 93.775 11.294 92.039 11.294 C 90.767 11.294 89.669 11.756 89.436 13.344 L 90.285995 13.34 L 87.986 15.639 L 85.687 13.339001 Z"/><path fill="#ffffff" stroke="none" d="M 74.099 15.217 C 74.099 21.147 69.291 25.955 63.359 25.955 C 57.429 25.955 52.620003 21.147 52.620003 15.217 C 52.620003 9.287 57.428005 4.479 63.36 4.479 C 69.29 4.479 74.099 9.287 74.099 15.217"/><path fill="#000000" stroke="none" d="M 66.468 12.11 C 66.467445 11.6961775 66.13182 11.361 65.718 11.361 L 60.976 11.361 C 60.562176 11.361 60.22655 11.6961775 60.226 12.11 L 60.226 16.853 L 61.549 16.853 L 61.549 22.469 L 65.144 22.469 L 65.144 16.853 L 66.468 16.853 Z M 64.97 9.114 C 64.97 10.009806 64.243805 10.736 63.348 10.736 C 62.452194 10.736 61.726 10.009806 61.726 9.114 C 61.74785 8.234154 62.46738 7.532271 63.347504 7.532271 C 64.227615 7.532271 64.94715 8.234154 64.969 9.114"/><path fill="#000000" fill-rule="evenodd" stroke="none" d="M 63.331997 3.386 Q 58.515 3.386 55.176 6.7490005 Q 51.751 10.226 51.751 14.98 Q 51.751 19.734 55.176 23.155 Q 58.601 26.576 63.331997 26.575 Q 68.122 26.575 71.634 23.125 Q 74.944 19.851 74.944 14.98 Q 74.944 10.109 71.575 6.75 Q 68.208 3.386 63.331 3.387 M 63.361 5.4730005 Q 67.308 5.4730005 70.065 8.257 Q 72.853 11.01 72.853 14.981 Q 72.853 18.981 70.123 21.62 Q 67.25 24.46 63.36 24.46 Q 59.470005 24.46 56.656 21.648 Q 53.84 18.838 53.84 14.981 Q 53.84 11.126 56.683994 8.257 Q 59.414 5.4730005 63.36 5.4730005"/></svg>

<svg xmlns="http://www.w3.org/2000/svg" width="120" height="42"><path fill="#aab2ab" d="m3.408.476 113.354.202c1.584 0 3-.235 3 3.16l-.14 37.33H.547V3.7C.547 2.026.71.476 3.407.476"/><path fill="#fff" d="M34.522 19.575c.005 7.53-6.096 13.637-13.626 13.642S7.256 27.121 7.252 19.592v-.017C7.248 12.045 13.35 5.938 20.88 5.934c7.531-.005 13.639 6.096 13.643 13.625Z"/><path d="M31.971 8.47q4.536 4.536 4.536 11.106t-4.458 10.987q-4.73 4.653-11.181 4.653-6.374 0-10.987-4.614T5.267 19.576 9.881 8.47q4.496-4.535 10.987-4.535 6.57 0 11.103 4.535m-20.054 2.034q-3.835 3.872-3.834 9.075t3.794 8.996q3.795 3.794 9.037 3.794t9.114-3.833q3.678-3.558 3.678-8.957 0-5.358-3.737-9.094-3.735-3.735-9.055-3.736-5.32 0-8.997 3.755m6.727 7.55q-.586-1.278-1.756-1.278-2.067 0-2.067 2.783t2.067 2.784q1.366 0 1.951-1.358l1.911 1.018q-1.365 2.428-4.1 2.428-2.107 0-3.376-1.292t-1.269-3.563q0-2.233 1.308-3.544 1.308-1.312 3.26-1.312 2.888 0 4.139 2.275Zm8.99 0q-.587-1.278-1.72-1.278-2.11 0-2.11 2.783t2.11 2.784q1.368 0 1.915-1.358l1.953 1.018q-1.364 2.428-4.092 2.428-2.105 0-3.372-1.292-1.265-1.293-1.266-3.563 0-2.233 1.287-3.544 1.285-1.312 3.273-1.312 2.885 0 4.13 2.275Z"/><path d="M117.753 0H2.247A2.25 2.25 0 0 0 0 2.247v39.245c0 .28.227.508.507.508h118.985c.28 0 .508-.228.508-.508V2.247A2.25 2.25 0 0 0 117.753 0M2.247 1.015h115.506c.68 0 1.232.553 1.232 1.232v27.245H36.428c-3.026 5.47-8.856 9.185-15.547 9.185-6.693 0-12.521-3.711-15.546-9.185h-4.32V2.247c0-.68.552-1.232 1.232-1.232"/><path fill="#fff" d="M86.264 37.732q.12.232.32.376.198.144.466.213.27.07.556.07.194 0 .416-.032.222-.033.417-.126a.9.9 0 0 0 .323-.255.64.64 0 0 0 .13-.413.58.58 0 0 0-.172-.435 1.4 1.4 0 0 0-.45-.279 5 5 0 0 0-.628-.194 17 17 0 0 1-.713-.186 6 6 0 0 1-.723-.227 2.5 2.5 0 0 1-.63-.348 1.6 1.6 0 0 1-.45-.533 1.6 1.6 0 0 1-.17-.775q0-.51.217-.886.219-.375.57-.626.352-.25.797-.371.444-.12.89-.12.519 0 .996.116.476.116.847.376t.59.664q.216.403.217.979h-1.413a1.2 1.2 0 0 0-.124-.492.8.8 0 0 0-.282-.306 1.2 1.2 0 0 0-.402-.158 2.5 2.5 0 0 0-.494-.046 1.7 1.7 0 0 0-.35.037 1 1 0 0 0-.318.13.8.8 0 0 0-.236.232.63.63 0 0 0-.092.352q0 .195.073.316.075.12.293.222.216.102.601.205.384.102 1.006.26.184.037.513.134.33.097.653.31.325.214.561.571t.236.914q0 .456-.177.845-.176.39-.524.672-.348.284-.862.441a4 4 0 0 1-1.191.158q-.548 0-1.063-.135a2.7 2.7 0 0 1-.91-.423 2.1 2.1 0 0 1-.625-.734q-.232-.447-.223-1.058h1.413q0 .333.12.565m8.207-4.985 2.477 6.622h-1.513l-.5-1.475h-2.478l-.52 1.475h-1.465l2.505-6.622Zm.083 4.06-.835-2.427H93.7l-.864 2.427ZM59.997 32.747q.473 0 .863.084t.67.274.432.505.153.778q0 .501-.228.834-.227.334-.673.547.614.177.917.617.303.441.302 1.063 0 .501-.195.867a1.7 1.7 0 0 1-.525.599q-.33.231-.753.343a3.4 3.4 0 0 1-.87.111h-3.215v-6.622Zm-.187 2.679q.39 0 .642-.185.25-.186.25-.601a.8.8 0 0 0-.083-.38.6.6 0 0 0-.224-.231 1 1 0 0 0-.32-.116 2 2 0 0 0-.376-.032h-1.365v1.545Zm.086 2.81q.213 0 .408-.042a1 1 0 0 0 .345-.139.7.7 0 0 0 .236-.264.9.9 0 0 0 .089-.427q0-.51-.288-.727-.29-.218-.762-.218h-1.59v1.817Zm2.794-5.489h1.634l1.55 2.616 1.542-2.616h1.624l-2.459 4.08v2.542h-1.46v-2.578ZM102.403 14.98c.004 5.846-4.731 10.588-10.577 10.592s-10.588-4.73-10.593-10.576v-.015C81.229 9.135 85.965 4.394 91.81 4.389c5.846-.004 10.59 4.731 10.593 10.576Z"/><path d="M91.742 3.386q-4.817 0-8.156 3.362-3.425 3.479-3.425 8.233t3.425 8.174 8.156 3.42q4.789 0 8.303-3.449 3.308-3.275 3.308-8.145t-3.367-8.233-8.244-3.362m.03 2.087q3.947 0 6.705 2.783 2.786 2.754 2.786 6.725 0 4-2.728 6.638-2.874 2.84-6.764 2.84t-6.705-2.81q-2.815-2.813-2.815-6.668t2.844-6.725q2.729-2.783 6.676-2.783"/><path d="M86.603 13.344c.461-2.917 2.516-4.477 5.09-4.477 3.702 0 5.958 2.686 5.958 6.268 0 3.495-2.4 6.21-6.016 6.21-2.488 0-4.714-1.53-5.12-4.534h2.921c.088 1.56 1.1 2.108 2.546 2.108 1.648 0 2.72-1.53 2.72-3.87 0-2.455-.927-3.755-2.663-3.755-1.272 0-2.37.462-2.603 2.05l.85-.004-2.3 2.299-2.299-2.3Z"/><path fill="#fff" d="M74.099 15.217c0 5.93-4.808 10.738-10.74 10.738-5.93 0-10.739-4.808-10.739-10.738S57.428 4.479 63.36 4.479c5.93 0 10.739 4.808 10.739 10.738"/><path d="M66.468 12.11a.75.75 0 0 0-.75-.749h-4.742a.75.75 0 0 0-.75.749v4.743h1.323v5.616h3.595v-5.616h1.324ZM64.97 9.114a1.622 1.622 0 0 1-3.244 0 1.622 1.622 0 0 1 3.243 0"/><path fill-rule="evenodd" d="M63.332 3.386q-4.817 0-8.156 3.363-3.425 3.477-3.425 8.231t3.425 8.175 8.156 3.42q4.79 0 8.302-3.45 3.31-3.274 3.31-8.145t-3.369-8.23q-3.367-3.364-8.244-3.363m.03 2.086q3.947 0 6.704 2.784 2.788 2.753 2.788 6.724 0 4-2.73 6.639-2.873 2.84-6.763 2.84t-6.704-2.812q-2.816-2.81-2.816-6.667 0-3.855 2.844-6.724 2.73-2.784 6.676-2.784"/></svg>
